actions/24/go-previous-context.svg

<?xml version="1.0" encoding="UTF-8" standalone="no"?>
<svg
   width="24"
   height="24"
   version="1.1"
   id="svg9"
   sodipodi:docname="go-previous-context.svg"
   inkscape:version="1.1.2 (0a00cf5339, 2022-02-04)"
   xmlns:inkscape="http://www.inkscape.org/namespaces/inkscape"
   xmlns:sodipodi="http://sodipodi.sourceforge.net/DTD/sodipodi-0.dtd"
   xmlns="http://www.w3.org/2000/svg"
   xmlns:svg="http://www.w3.org/2000/svg">
  <sodipodi:namedview
     id="namedview11"
     pagecolor="#060606"
     bordercolor="#666666"
     borderopacity="1.0"
     inkscape:pageshadow="2"
     inkscape:pageopacity="0"
     inkscape:pagecheckerboard="0"
     showgrid="false"
     inkscape:zoom="28.416667"
     inkscape:cx="11.982405"
     inkscape:cy="11.964809"
     inkscape:window-width="1596"
     inkscape:window-height="967"
     inkscape:window-x="0"
     inkscape:window-y="29"
     inkscape:window-maximized="1"
     inkscape:current-layer="g7" />
  <defs
     id="defs3">
    <style
       id="current-color-scheme"
       type="text/css">
   .ColorScheme-Text { color:#eeeeec; } .ColorScheme-Highlight { color:#367bf0; } .ColorScheme-NeutralText { color:#ffcc44; } .ColorScheme-PositiveText { color:#3db47e; } .ColorScheme-NegativeText { color:#dd4747; }
  </style>
  </defs>
  <g
     transform="translate(4,4)"
     id="g7">
    <path
       style="fill:currentColor"
       class="ColorScheme-Text"
       d="M 16,2 V 14 H 6.5646744 v 0 L 5.6261763,13.626176 0.577021,8.577021 v 0 L 0.67443687,7.3255631 5.6886437,2.3113563 6.4241288,2 v 0 z m -4,2 h -1 v 1 h 1 c 1,0 1,1 1,1 v 1 c 0,0 0,0.5784 0.375,1 C 13,8.4216 13,9 13,9 v 1 c 0,0 0,1 -1,1 h -1 v 1 h 1 c 2,0 2,-2 2,-2 V 9 C 14,8.5 14.5,8.5 14.5,8.5 H 15 v -1 H 14.5 C 14.5,7.5 14,7.5 14,7 V 6 C 14,6 14,4 12,4 Z M 10,4 H 9 C 7,4 7,6 7,6 V 7 C 7,7.5 6.5,7.5 6.5,7.5 H 6 v 1 h 0.5 c 0,0 0.5,0 0.5,0.5 v 1 c 0,0 0,2 2,2 h 1 V 11 H 9 C 8,11 8,10 8,10 V 9 C 8,9 8,8.4216 7.625,8 8,7.5784 8,7 8,7 V 6 C 8,6 8,5 9,5 h 1 z"
       id="path5"
       sodipodi:nodetypes="ccccccccccccsccscccccsccscsccccscscscsccccscsccscccccscc" />
  </g>
</svg>

<svg xmlns="http://www.w3.org/2000/svg" width="24" height="24" version="1.1">
 <defs>
  <style id="current-color-scheme" type="text/css">
   .ColorScheme-Text { color:#eeeeec; } .ColorScheme-Highlight { color:#367bf0; } .ColorScheme-NeutralText { color:#ffcc44; } .ColorScheme-PositiveText { color:#3db47e; } .ColorScheme-NegativeText { color:#dd4747; }
  </style>
 </defs>
 <g transform="translate(4,4)">
  <path style="fill:currentColor" class="ColorScheme-Text" d="M 16,2 V 14 H 6 L 0,8 6,2 Z M 12,4 H 11 V 5 H 12 C 13,5 13,6 13,6 V 7 C 13,7 13,7.5784 13.375,8 13,8.4216 13,9 13,9 V 10 C 13,10 13,11 12,11 H 11 V 12 H 12 C 14,12 14,10 14,10 V 9 C 14,8.5 14.5,8.5 14.5,8.5 H 15 V 7.5 H 14.5 C 14.5,7.5 14,7.5 14,7 V 6 C 14,6 14,4 12,4 Z M 10,4 H 9 C 7,4 7,6 7,6 V 7 C 7,7.5 6.5,7.5 6.5,7.5 H 6 V 8.5 H 6.5 C 6.5,8.5 7,8.5 7,9 V 10 C 7,10 7,12 9,12 H 10 V 11 H 9 C 8,11 8,10 8,10 V 9 C 8,9 8,8.4216 7.625,8 8,7.5784 8,7 8,7 V 6 C 8,6 8,5 9,5 H 10 Z"/>
 </g>
</svg>
